icons/plexis/48/kigo.svg

<svg viewBox="0 0 48 48" xmlns="http://www.w3.org/2000/svg" xmlns:xlink="http://www.w3.org/1999/xlink">
  <linearGradient id="a" gradientUnits="userSpaceOnUse" x2="0" y1="47" y2="1">
    <stop offset="0" stop-color="#82b339"/>
    <stop offset="1" stop-color="#8dc13f"/>
  </linearGradient>
  <path d="m24 1c22.703 0 23 .297 23 23 0 22.703-.297 23-23 23-22.703 0-23-.297-23-23 0-22.703.297-23 23-23z" fill="url(#a)"/>
  <g opacity=".1" transform="translate(1 1)">
    <path d="m23 30.5c0 3.039-2.461 5.5-5.5 5.5-3.039 0-5.5-2.461-5.5-5.5 0-3.039 2.461-5.5 5.5-5.5 3.039 0 5.5 2.461 5.5 5.5m0 0"/>
    <path d="m36 30.5c0 3.039-2.461 5.5-5.5 5.5-3.039 0-5.5-2.461-5.5-5.5 0-3.039 2.461-5.5 5.5-5.5 3.039 0 5.5 2.461 5.5 5.5m0 0"/>
    <path d="m23 17.5c0 3.039-2.461 5.5-5.5 5.5-3.039 0-5.5-2.461-5.5-5.5 0-3.039 2.461-5.5 5.5-5.5 3.039 0 5.5 2.461 5.5 5.5m0 0"/>
    <path d="m36 17.5c0 3.039-2.461 5.5-5.5 5.5-3.039 0-5.5-2.461-5.5-5.5 0-3.039 2.461-5.5 5.5-5.5 3.039 0 5.5 2.461 5.5 5.5m0 0"/>
  </g>
  <path d="m23 30.5c0 3.039-2.461 5.5-5.5 5.5-3.039 0-5.5-2.461-5.5-5.5 0-3.039 2.461-5.5 5.5-5.5 3.039 0 5.5 2.461 5.5 5.5m0 0" fill="#2d2d2d"/>
  <path d="m36 30.5c0 3.039-2.461 5.5-5.5 5.5-3.039 0-5.5-2.461-5.5-5.5 0-3.039 2.461-5.5 5.5-5.5 3.039 0 5.5 2.461 5.5 5.5m0 0" fill="#f9f9f9"/>
  <path d="m23 17.5c0 3.039-2.461 5.5-5.5 5.5-3.039 0-5.5-2.461-5.5-5.5 0-3.039 2.461-5.5 5.5-5.5 3.039 0 5.5 2.461 5.5 5.5m0 0" fill="#f9f9f9"/>
  <path d="m36 17.5c0 3.039-2.461 5.5-5.5 5.5-3.039 0-5.5-2.461-5.5-5.5 0-3.039 2.461-5.5 5.5-5.5 3.039 0 5.5 2.461 5.5 5.5m0 0" fill="#2d2d2d"/>
</svg>

<svg xmlns="http://www.w3.org/2000/svg" viewBox="0 0 48 48">
 <defs>
  <linearGradient id="linearGradient3845" y1="47" x2="0" y2="1" gradientUnits="userSpaceOnUse">
   <stop style="stop-color:#82b339;stop-opacity:1"/>
   <stop offset="1" style="stop-color:#8dc13f;stop-opacity:1"/>
  </linearGradient>
 </defs>
 <g>
  
  
  
 </g>
 <g>
  <path d="m 24 1 c 22.703 0 23 0.297 23 23 c 0 22.703 -0.297 23 -23 23 -22.703 0 -23 -0.297 -23 -23 0 -22.703 0.297 -23 23 -23 z" style="fill:url(#linearGradient3845);fill-opacity:1"/>
 </g>
 <g>
  
 </g>
 <g>
  <g>
   <g>
    <g transform="translate(1,1)">
     <g style="opacity:0.1">
      <!-- color: #91c8ff -->
      <g>
       <path d="M 23,30.5 C 23,33.539 20.539,36 17.5,36 14.461,36 12,33.539 12,30.5 12,27.461 14.461,25 17.5,25 c 3.039,0 5.5,2.461 5.5,5.5 m 0,0" style="fill:#000;fill-opacity:1;stroke:none;fill-rule:nonzero"/>
       <path d="M 36,30.5 C 36,33.539 33.539,36 30.5,36 27.461,36 25,33.539 25,30.5 25,27.461 27.461,25 30.5,25 c 3.039,0 5.5,2.461 5.5,5.5 m 0,0" style="fill:#000;fill-opacity:1;stroke:none;fill-rule:nonzero"/>
       <path d="M 23,17.5 C 23,20.539 20.539,23 17.5,23 14.461,23 12,20.539 12,17.5 12,14.461 14.461,12 17.5,12 c 3.039,0 5.5,2.461 5.5,5.5 m 0,0" style="fill:#000;fill-opacity:1;stroke:none;fill-rule:nonzero"/>
       <path d="M 36,17.5 C 36,20.539 33.539,23 30.5,23 27.461,23 25,20.539 25,17.5 25,14.461 27.461,12 30.5,12 c 3.039,0 5.5,2.461 5.5,5.5 m 0,0" style="fill:#000;fill-opacity:1;stroke:none;fill-rule:nonzero"/>
      </g>
     </g>
    </g>
   </g>
  </g>
  <g>
   <g>
    <!-- color: #91c8ff -->
    <g>
     <path d="M 23,30.5 C 23,33.539 20.539,36 17.5,36 14.461,36 12,33.539 12,30.5 12,27.461 14.461,25 17.5,25 c 3.039,0 5.5,2.461 5.5,5.5 m 0,0" style="fill:#2d2d2d;fill-opacity:1;stroke:none;fill-rule:nonzero"/>
     <path d="M 36,30.5 C 36,33.539 33.539,36 30.5,36 27.461,36 25,33.539 25,30.5 25,27.461 27.461,25 30.5,25 c 3.039,0 5.5,2.461 5.5,5.5 m 0,0" style="fill:#f9f9f9;fill-opacity:1;stroke:none;fill-rule:nonzero"/>
     <path d="M 23,17.5 C 23,20.539 20.539,23 17.5,23 14.461,23 12,20.539 12,17.5 12,14.461 14.461,12 17.5,12 c 3.039,0 5.5,2.461 5.5,5.5 m 0,0" style="fill:#f9f9f9;fill-opacity:1;stroke:none;fill-rule:nonzero"/>
     <path d="M 36,17.5 C 36,20.539 33.539,23 30.5,23 27.461,23 25,20.539 25,17.5 25,14.461 27.461,12 30.5,12 c 3.039,0 5.5,2.461 5.5,5.5 m 0,0" style="fill:#2d2d2d;fill-opacity:1;stroke:none;fill-rule:nonzero"/>
    </g>
   </g>
  </g>
 </g>
</svg>
